resources/svg/4k-line.svg

<svg fill="currentColor" viewBox="0 0 24 24" xmlns="http://www.w3.org/2000/svg"><path d="M4 5V19H20V5H4ZM3 3H21C21.5523 3 22 3.44772 22 4V20C22 20.5523 21.5523 21 21 21H3C2.44772 21 2 20.5523 2 20V4C2 3.44772 2.44772 3 3 3ZM11.5 13.5H10.5V15H9V13.5H6V9H7.5V12H9V9H10.5V12H11.5V13.5ZM18 15H16.25L14.5 12.75V15H13V9H14.5V11.25L16.25 9H18L15.75 12L18 15Z"/></svg>

<svg xmlns="http://www.w3.org/2000/svg" viewBox="0 0 24 24" fill="currentColor">
    <g>
        <path fill="none" d="M0 0h24v24H0z"/>
        <path d="M4 5v14h16V5H4zM3 3h18a1 1 0 0 1 1 1v16a1 1 0 0 1-1 1H3a1 1 0 0 1-1-1V4a1 1 0 0 1 1-1zm8.5 10.5h-1V15H9v-1.5H6V9h1.5v3H9V9h1.5v3h1v1.5zM18 15h-1.75l-1.75-2.25V15H13V9h1.5v2.25L16.25 9H18l-2.25 3L18 15z"/>
    </g>
</svg>
